X: 79
T: the Penitent Nun 
%%VWML:Wrights-3753-p40-0
F: http://www.vwml.org/record/Wrights/3753/p40
%R: reel
B: Daniel Wright "Wright's Compleat Collection of Celebrated Country Dances" 1740 p.40
S: http://library.efdss.org/cgi-bin/dancebooks.cgi
Z: 2014 John Chambers <jc:trillian.mit.edu>
N: Repeats modified to match the "Each strain twice" instruction.
N: Reduced "to to" to just "to" in the dance description.
M: C|
L: 1/8
K: F
%-------------------------
|:\
FGAB c2c2 | fgag f2dc | BAG2 F3G | A6 F2 |\
c2G2 A2F2 | c2G2 A2F2 | fed2 d3c | c8 :|
|:\
c2de f3A | Bcd2 c3c | def2 e3f | g6 G2 |\
c2G2 A2F2 | c2G2 A3c | def2 f3e | f8 :|
%-------------------------
%%center Each strain twice
%%begintext align
%% The 1st Man and 2d Wo. take their Handkerchiefs to
%% their Eyes as if Crying, and turn single & then
%% turn her .| Then the 2d Man do the same :| Cross over
%% and Figure thro' the 1st Cu. then Right & Left quite
%% round .| Then lead thro' the 3d Cu. & thro' the 2d
%% Cu. then cast off and turn your Partners.
%%endtext
%-------------------------
%%sep 2 4 300
T: the Sham Squire
T: Longways for as many as will.
%R: march, reel
B: Daniel Wright "Wright's Compleat Collection of Celebrated Country Dances" 1740 p.40
S: http://library.efdss.org/cgi-bin/dancebooks.cgi
Z: 2014 John Chambers <jc:trillian.mit.edu>
N: Repeats modified to match the "Each strain twice" instruction.
M: 2/2 % Actually just "2" in the book.
L: 1/8
K: C
%-------------------------
cB |\
c2G2 G2cB | c2F2 F2cB | c2E2 E2FE | D2 d4 cB |\
c2G2 G2cB | c2F2 F2cB | c2E2 E2FD | C2 c4 :|
|: g^f |\
g2G2 G2fe | f2F2 F2fe | f2e2 d2c2 | B2 d4 cB |\
c2G2 G2cB | c2F2 F2cB | c2E2 E2FD | C2 c4 :|
%-------------------------
%%center Each strain twice
%%begintext align
%% The 1st Man sett to the 2d Wo. and turn single, and
%% then turn into your Proper Place .| Then the other
%% Cu. do the same :| Then both Men change Places with
%% both their own Partners & Right & Left half round
%% & turn single .| lead thro' at top & cast off and thro' %% at bottom then cast up and turn.
%%endtext
%-------------------------
%%sep 2 4 300
